src/assets/svg/LinkedIN.svg

<svg width="36" height="35" viewBox="0 0 36 35" fill="none" xmlns="http://www.w3.org/2000/svg">
<path d="M0.5 17.5C0.5 7.83502 8.33502 0 18 0C27.665 0 35.5 7.83502 35.5 17.5C35.5 27.165 27.665 35 18 35C8.33502 35 0.5 27.165 0.5 17.5Z" fill="#0077B5"/>
<path fill-rule="evenodd" clip-rule="evenodd" d="M13.1281 10.8082C13.1281 11.9524 12.2669 12.8679 10.884 12.8679H10.8587C9.52725 12.8679 8.6665 11.9524 8.6665 10.8082C8.6665 9.63988 9.55347 8.75 10.9102 8.75C12.2669 8.75 13.1024 9.63988 13.1281 10.8082ZM12.8669 14.4943V26.4101H8.90102V14.4943H12.8669ZM27.1692 26.4101L27.1694 19.5779C27.1694 15.9179 25.2129 14.2145 22.6032 14.2145C20.4975 14.2145 19.5548 15.371 19.0285 16.1824V14.4946H15.0621C15.1144 15.6127 15.0621 26.4104 15.0621 26.4104H19.0285V19.7556C19.0285 19.3995 19.0542 19.0442 19.1591 18.7893C19.4457 18.0778 20.0983 17.3412 21.194 17.3412C22.6296 17.3412 23.2035 18.4339 23.2035 20.0351V26.4101H27.1692Z" fill="white"/>
</svg>

<svg width="36" height="35" fill="none" xmlns="http://www.w3.org/2000/svg"><path d="M.5 17.5C.5 7.835 8.335 0 18 0s17.5 7.835 17.5 17.5S27.665 35 18 35 .5 27.165.5 17.5z" fill="#0077B5"/><path fill-rule="evenodd" clip-rule="evenodd" d="M13.128 10.808c0 1.144-.861 2.06-2.244 2.06h-.025c-1.332 0-2.193-.916-2.193-2.06 0-1.168.887-2.058 2.244-2.058 1.357 0 2.192.89 2.218 2.058zm-.261 3.686V26.41H8.9V14.494h3.966zM27.169 26.41v-6.832c0-3.66-1.956-5.364-4.566-5.364-2.106 0-3.048 1.157-3.575 1.968v-1.687h-3.966c.052 1.118 0 11.915 0 11.915h3.967v-6.654c0-.357.025-.712.13-.967.287-.711.94-1.448 2.035-1.448 1.436 0 2.01 1.093 2.01 2.694v6.375h3.965z" fill="#fff"/></svg>
